icons/azure.svg

<?xml version="1.0" encoding="UTF-8"?>
<svg width="512px" height="148px" viewBox="0 0 512 148" version="1.1" xmlns="http://www.w3.org/2000/svg" xmlns:xlink="http://www.w3.org/1999/xlink">
    <title>path21</title>
    <g stroke="none" stroke-width="1" fill="none" fill-rule="evenodd">
        <path d="M88.1004353,139.62683 C112.567045,135.30475 132.775068,131.72823 133.00716,131.679011 L133.429152,131.589518 L110.33026,104.114111 C97.6258791,89.0026353 87.2313796,76.5801094 87.2313796,76.5084996 C87.2313796,76.3729207 111.082936,10.690889 111.217022,10.4570512 C111.261853,10.3790877 127.493562,38.4026876 150.563749,78.3882717 C172.16248,115.823492 189.969587,146.688965 190.135099,146.978199 L190.436042,147.504087 L117.025859,147.494618 L43.6156897,147.485187 L88.1004353,139.626857 L88.1004353,139.62683 Z M369.619894,132.982059 C358.445424,132.265623 351.946305,125.90263 350.224075,113.992527 C349.765944,110.824245 349.764193,110.742042 349.71731,90.173623 L349.671933,70.2668333 L354.617465,70.2668333 L359.562981,70.2668333 L359.601927,89.5218293 C359.637031,106.875822 359.659056,108.910554 359.82497,110.131358 C360.498323,115.085873 361.838855,118.417676 364.121111,120.809186 C365.947645,122.72315 368.085892,123.843826 371.045792,124.43849 C372.442202,124.719032 376.414651,124.719594 377.687784,124.439645 C380.688543,123.779283 383.093622,122.473451 385.215267,120.35261 C387.633499,117.935291 389.422457,114.50562 390.288072,110.627341 L390.579811,109.32022 L390.612298,89.9022726 L390.644785,70.4843301 L395.693852,70.4843301 L400.74293,70.4843301 L400.74293,101.009883 L400.74293,131.535433 L395.745866,131.535433 L390.748801,131.535433 L390.748801,126.692266 C390.748801,123.401492 390.712734,121.861115 390.636321,121.886589 C390.574469,121.907221 390.317826,122.299823 390.066006,122.759067 C388.343996,125.899581 385.474939,128.771567 382.331115,130.501845 C378.562694,132.575877 374.783458,133.313357 369.619906,132.98229 L369.619894,132.982059 Z M483.0417,132.932728 C479.097099,132.636228 474.943659,131.280057 471.548892,129.180151 C464.393792,124.754183 460.160147,117.45875 458.920548,107.418927 C458.491593,103.944772 458.440038,99.2780919 458.79799,96.3260054 C459.597792,89.7297687 462.189813,83.2543494 465.880853,78.6314848 C466.827069,77.4463937 468.973634,75.2998325 470.158675,74.3536781 C473.358787,71.7986529 477.101956,70.0119727 481.07618,69.142559 C483.391754,68.635998 487.469512,68.3981545 489.929676,68.6261595 C496.109795,69.1989338 501.773946,72.1087451 505.62373,76.6885672 C509.535054,81.3416131 511.68493,87.8434569 511.959475,95.8496371 C512.002504,97.1043325 512.012936,99.3041276 511.982685,100.738071 L511.927642,103.345234 L490.282744,103.37264 L468.637845,103.400046 L468.637845,104.365954 C468.637845,107.306386 469.352719,110.655448 470.58858,113.504881 C471.654324,115.962081 473.488865,118.645288 474.990919,119.943764 C478.070751,122.606178 481.840061,124.199784 485.964629,124.583288 C487.493969,124.725476 491.391517,124.575782 493.134329,124.307996 C498.106682,123.543845 502.834005,121.593568 506.651598,118.731398 C507.100749,118.39465 507.530581,118.080031 507.606775,118.032256 C507.718277,117.962339 507.744629,118.84215 507.741807,122.540477 L507.738343,127.135574 L506.715456,127.768202 C502.396809,130.439177 497.449353,132.154247 492.211008,132.796272 C490.647729,132.987864 484.911294,133.073215 483.041761,132.93269 L483.0417,132.932728 Z M501.879178,94.1773502 C501.879178,89.25193 499.803538,83.7803987 496.866274,80.9629904 C494.770072,78.9523161 492.236039,77.7235256 489.223566,77.2569342 C487.798361,77.0361849 484.794603,77.1212051 483.291995,77.424823 C480.115537,78.0666628 477.488189,79.463092 475.196618,81.7274953 C472.784884,84.1106374 470.976695,87.0051636 469.839526,90.3030741 C469.430615,91.4889658 468.952341,93.4359096 468.803887,94.5188939 L468.733154,95.0348969 L485.306161,95.0348969 L501.879178,95.0348969 L501.879178,94.1773502 Z M208.270112,131.399412 C208.295466,131.324726 215.645563,112.015579 224.603672,88.4901966 L240.891141,45.716123 L246.124393,45.716123 L251.357635,45.716123 L251.791839,46.8296003 C253.118722,50.2322888 284.398199,131.442453 284.398199,131.484644 C284.398199,131.512435 281.892877,131.534393 278.830816,131.534393 L273.263433,131.533232 L268.755212,119.530464 L264.246991,107.527701 L246.094793,107.527481 L227.942592,107.527266 L227.784846,107.934634 C227.698094,108.158686 225.771975,113.559547 223.504568,119.936555 L219.382032,131.531091 L213.803026,131.533016 C209.386999,131.534393 208.233634,131.506611 208.270112,131.399127 L208.270112,131.399412 Z M260.933718,98.3678925 C260.933718,98.3488777 257.89986,90.1240728 254.19181,80.0905821 C247.254688,61.3196527 246.866623,60.1902513 246.31853,57.1766937 C246.061517,55.7635822 245.931474,55.7243131 245.778924,57.0137472 C245.669877,57.9354209 245.197058,59.9977894 244.832546,61.1417599 C244.651682,61.7093609 241.527745,70.2834078 237.890458,80.1951946 C234.253179,90.1069825 231.27722,98.2584455 231.27722,98.3095547 C231.27722,98.3606677 237.949936,98.4024849 246.105471,98.4024849 C254.261006,98.4024849 260.933718,98.3869343 260.933718,98.367881 L260.933718,98.3678925 Z M287.765787,129.971958 L287.765787,128.40871 L305.850917,103.547257 L323.936046,78.6858003 L307.561869,78.6314848 L291.187691,78.5771693 L291.159246,74.4220007 L291.1308,70.2668333 L314.813841,70.2668333 L338.496877,70.2668333 L338.496877,71.6702603 L338.496877,73.0736861 L320.409673,98.070722 C310.461711,111.819095 302.322469,123.090887 302.322469,123.119156 C302.322469,123.147409 310.363942,123.17055 320.192407,123.17055 L338.062349,123.17055 L338.062349,127.352874 L338.062349,131.535202 L312.914065,131.535202 L287.765787,131.535202 L287.765787,129.971958 Z M420.47771,131.462776 C420.437875,131.422953 420.405284,117.63757 420.405284,100.828595 L420.405284,70.2668333 L425.348037,70.2668333 L430.290786,70.2668333 L430.290786,76.5674803 C430.290786,80.032837 430.332923,82.8681285 430.384436,82.8681285 C430.435949,82.8681285 430.676514,82.3008854 430.919023,81.6075901 C432.030318,78.4306471 433.957523,75.4621285 436.440424,73.1028357 C438.677152,70.9774615 441.233533,69.7064764 444.249977,69.2200773 C445.097309,69.0834436 445.814276,69.0573579 447.508934,69.1015 C449.637228,69.1569357 450.749931,69.3125072 452.044315,69.735603 L452.451684,69.8687609 L452.451684,74.9992824 L452.451684,80.1298012 L451.283891,79.5452369 C449.221049,78.5126342 447.185636,78.1039997 444.738821,78.2312298 C443.146396,78.3140368 442.101176,78.5185158 440.828074,78.996312 C438.208647,79.9793837 436.083915,81.7145813 434.599255,84.0831698 C432.449984,87.5120673 430.917102,91.9195713 430.464987,95.9704815 C430.383851,96.6974493 430.33601,102.618055 430.316953,114.289894 L430.288815,131.535202 L425.41947,131.535202 C422.741335,131.535202 420.517541,131.5026 420.477717,131.462776 L420.47771,131.462776 Z M-4.03864498e-06,131.248155 C-4.03864498e-06,131.209471 10.8840818,112.315552 24.1868529,89.261653 L48.373706,47.3454764 L76.5606873,23.6909044 C92.0635269,10.6808927 104.789417,0.0204315308 104.840437,0.000455014926 C104.891458,-0.0184488374 104.687522,0.494832839 104.387245,1.14162264 C104.086968,1.78841244 90.3137756,31.3304598 73.7801502,66.7906143 L43.7190204,131.263621 L21.8595082,131.291027 C9.83677915,131.306116 -4.03864498e-06,131.286793 -4.03864498e-06,131.24814 L-4.03864498e-06,131.248155 Z" fill="#0089D6" fill-rule="nonzero"></path>
    </g>
</svg>

<svg xmlns="http://www.w3.org/2000/svg" viewBox="0 0 512 147.504">
  <path fill="#0089d6" fill-rule="nonzero" d="M88.1 139.627c24.467-4.322 44.675-7.899 44.907-7.948l.422-.09-23.099-27.475C97.626 89.003 87.231 76.58 87.231 76.51c0-.136 23.852-65.818 23.986-66.052.045-.078 16.277 27.946 39.347 67.931 21.598 37.436 39.406 68.301 39.571 68.59l.301.526-73.41-.009-73.41-.009 44.484-7.858zm281.52-6.645c-11.175-.716-17.674-7.08-19.396-18.99-.458-3.168-.46-3.25-.507-23.818l-.045-19.907h9.891l.039 19.255c.035 17.354.057 19.389.223 20.61.673 4.954 2.014 8.286 4.296 10.677 1.827 1.914 3.965 3.035 6.925 3.63 1.396.28 5.369.28 6.642 0 3-.66 5.406-1.966 7.527-4.086 2.418-2.418 4.207-5.847 5.073-9.726l.292-1.307.032-19.418.033-19.418h10.098v61.051h-9.994v-4.843c0-3.29-.036-4.831-.113-4.806-.062.021-.318.414-.57.873-1.722 3.14-4.591 6.012-7.735 7.743-3.768 2.074-7.548 2.811-12.711 2.48zm113.422-.05c-3.945-.296-8.098-1.652-11.493-3.752-7.155-4.426-11.389-11.721-12.628-21.761-.43-3.474-.481-8.14-.123-11.093.8-6.596 3.392-13.072 7.083-17.694.946-1.186 3.093-3.332 4.278-4.278a26.65 26.65 0 0 1 10.917-5.211c2.316-.507 6.394-.745 8.854-.517 6.18.573 11.844 3.483 15.694 8.063 3.911 4.653 6.06 11.155 6.335 19.16.043 1.255.054 3.455.024 4.89l-.055 2.606-21.645.028-21.645.027v.966c0 2.94.715 6.29 1.95 9.139 1.066 2.457 2.9 5.14 4.403 6.439 3.08 2.662 6.85 4.256 10.974 4.64 1.529.142 5.427-.009 7.17-.276 4.972-.764 9.699-2.714 13.517-5.577.449-.336.879-.65.955-.699.111-.07.138.81.135 4.509l-.003 4.595-1.023.632c-4.319 2.671-9.266 4.386-14.504 5.028-1.564.192-7.3.277-9.17.137zm18.837-38.755c0-4.925-2.075-10.397-5.013-13.214-2.096-2.01-4.63-3.24-7.642-3.706-1.426-.22-4.43-.136-5.932.168-3.176.642-5.804 2.038-8.095 4.303-2.412 2.383-4.22 5.277-5.357 8.575-.41 1.186-.888 3.133-1.036 4.216l-.07.516H501.878zM208.27 131.4c.026-.074 7.376-19.383 16.334-42.909l16.287-42.774H251.358l.434 1.114c1.327 3.402 32.606 84.613 32.606 84.655 0 .028-2.505.05-5.567.05l-5.568-.002-4.508-12.002-4.508-12.003h-36.304l-.158.407c-.087.224-2.013 5.625-4.28 12.002l-4.123 11.594-5.579.002c-4.416.001-5.57-.026-5.533-.134zm52.664-33.031c0-.019-3.034-8.244-6.742-18.277-6.937-18.771-7.325-19.9-7.873-22.914-.257-1.413-.388-1.453-.54-.163-.11.922-.582 2.984-.946 4.128-.181.567-3.305 9.141-6.943 19.053-3.637 9.912-6.613 18.064-6.613 18.115 0 .05 6.673.093 14.828.093 8.156 0 14.829-.016 14.829-.035zm26.832 31.604v-1.563l18.085-24.862 18.085-24.861-16.374-.054-16.374-.055-.029-4.155-.028-4.155h47.366v2.807L320.41 98.07c-9.948 13.748-18.087 25.02-18.087 25.048 0 .028 8.041.052 17.87.052h17.87v8.364h-50.297zm132.712 1.49c-.04-.039-.073-13.824-.073-30.633l.001-30.562h9.885v6.3c0 3.466.043 6.301.094 6.301.052 0 .292-.567.535-1.26 1.111-3.177 3.038-6.146 5.521-8.505 2.237-2.125 4.793-3.396 7.81-3.883.847-.137 1.564-.163 3.259-.118 2.128.055 3.24.21 4.535.634l.407.133v10.26l-1.167-.584c-2.063-1.032-4.099-1.44-6.546-1.314-1.592.083-2.637.288-3.91.765a12.373 12.373 0 0 0-6.23 5.087c-2.148 3.43-3.681 7.837-4.133 11.888-.081.726-.13 6.647-.148 18.319l-.029 17.245h-4.869c-2.678 0-4.902-.032-4.942-.072zM0 131.249c0-.038 10.884-18.932 24.187-41.986l24.187-41.916L76.56 23.69C92.064 10.681 104.789.021 104.84.001c.05-.02-.153.494-.454 1.14-.3.647-14.073 30.19-30.607 65.65L43.72 131.264l-21.86.027C9.838 131.306 0 131.287 0 131.248z"/>
</svg>
